icons/arrow-big-right-dash.svg

<svg width="24" height="24" viewBox="0 0 24 24" fill="none" xmlns="http://www.w3.org/2000/svg">
<path d="M13.3935 19.4856C13.3935 20.4134 14.5641 20.8525 15.1991 20.1628L21.4682 13.3545C22.1773 12.5845 22.1773 11.4156 21.4682 10.6456L15.1991 3.83717C14.5641 3.14752 13.3935 3.58658 13.3935 4.51442L13.3935 7.95047C13.3935 8.50959 12.9298 8.96285 12.3577 8.96285H8.07154C6.92746 8.96285 6 9.86936 6 10.9876L6 13.0124C6 14.1306 6.92746 15.0371 8.07154 15.0371L12.3577 15.0371C12.9298 15.0371 13.3935 15.4904 13.3935 16.0495V19.4856Z" stroke="black" stroke-width="2" stroke-linecap="round" stroke-linejoin="round"/>
<path d="M2 9V15" stroke="black" stroke-width="2" stroke-linecap="round" stroke-linejoin="round"/>
</svg>

<svg xmlns="http://www.w3.org/2000/svg" width="24" height="24" viewBox="0 0 24 24" fill="none" stroke="currentColor" stroke-width="2" stroke-linecap="round" stroke-linejoin="round">
<path d="M13.394 19.486c0 .927 1.17 1.366 1.805.677l6.27-6.808a1.99 1.99 0 0 0 0-2.71l-6.27-6.808c-.635-.69-1.806-.25-1.806.677V7.95c0 .56-.463 1.013-1.035 1.013H8.072C6.927 8.963 6 9.869 6 10.988v2.024c0 1.119.927 2.025 2.072 2.025h4.286c.572 0 1.035.453 1.035 1.012zM2 9v6"/>
</svg>
